packages/ffe-icons/icons/open/400/sm/density_small.svg

<svg xmlns="http://www.w3.org/2000/svg" height="20" viewBox="0 -960 960 960" width="20"><path d="M180-120q-15.3 0-25.65-10.289-10.35-10.29-10.35-25.5Q144-171 154.35-181.5 164.7-192 180-192h600q15.3 0 25.65 10.289 10.35 10.29 10.35 25.5Q816-141 805.65-130.5 795.3-120 780-120H180Zm0-216q-15.3 0-25.65-10.289-10.35-10.29-10.35-25.5Q144-387 154.35-397.5 164.7-408 180-408h600q15.3 0 25.65 10.289 10.35 10.29 10.35 25.5Q816-357 805.65-346.5 795.3-336 780-336H180Zm0-216q-15.3 0-25.65-10.289-10.35-10.29-10.35-25.5Q144-603 154.35-613.5 164.7-624 180-624h600q15.3 0 25.65 10.289 10.35 10.29 10.35 25.5Q816-573 805.65-562.5 795.3-552 780-552H180Zm0-216q-15.3 0-25.65-10.289-10.35-10.29-10.35-25.5Q144-819 154.35-829.5 164.7-840 180-840h600q15.3 0 25.65 10.289 10.35 10.29 10.35 25.5Q816-789 805.65-778.5 795.3-768 780-768H180Z"/></svg>

<svg xmlns="http://www.w3.org/2000/svg" height="20" viewBox="0 -960 960 960" width="20"><path d="M180-120q-15.3 0-25.65-10.29Q144-140.58 144-155.79t10.35-25.71Q164.7-192 180-192h600q15.3 0 25.65 10.29Q816-171.42 816-156.21t-10.35 25.71Q795.3-120 780-120H180Zm0-216q-15.3 0-25.65-10.29Q144-356.58 144-371.79t10.35-25.71Q164.7-408 180-408h600q15.3 0 25.65 10.29Q816-387.42 816-372.21t-10.35 25.71Q795.3-336 780-336H180Zm0-216q-15.3 0-25.65-10.29Q144-572.58 144-587.79t10.35-25.71Q164.7-624 180-624h600q15.3 0 25.65 10.29Q816-603.42 816-588.21t-10.35 25.71Q795.3-552 780-552H180Zm0-216q-15.3 0-25.65-10.29Q144-788.58 144-803.79t10.35-25.71Q164.7-840 180-840h600q15.3 0 25.65 10.29Q816-819.42 816-804.21t-10.35 25.71Q795.3-768 780-768H180Z"/></svg>
